local/share/icons/dracula-icons-main/scalable/apps/exifcleaner.svg

<?xml version="1.0" encoding="UTF-8"?>
<svg xmlns="http://www.w3.org/2000/svg" xmlns:xlink="http://www.w3.org/1999/xlink" width="64" height="64" viewBox="0 0 64 64">
<path fill-rule="nonzero" fill="rgb(44.313725%, 7.058824%, 27.45098%)" fill-opacity="1" d="M 59 32 C 59 46.910156 46.910156 59 32 59 C 17.089844 59 5 46.910156 5 32 C 5 17.089844 17.089844 5 32 5 C 46.910156 5 59 17.089844 59 32 Z M 59 32 "/>
<path fill-rule="nonzero" fill="rgb(97.647059%, 97.647059%, 97.647059%)" fill-opacity="1" d="M 32 15.566406 C 32.648438 15.566406 33.171875 16.089844 33.171875 16.738281 L 33.171875 41.390625 C 33.171875 42.039062 32.648438 42.566406 32 42.566406 C 31.351562 42.566406 30.824219 42.039062 30.824219 41.390625 L 30.824219 16.738281 C 30.824219 16.089844 31.351562 15.566406 32 15.566406 Z M 32 15.566406 "/>
<path fill-rule="nonzero" fill="rgb(94.117647%, 81.568627%, 41.176471%)" fill-opacity="1" d="M 32 29.652344 C 28.265625 29.652344 25.132812 32.121094 24.125 35.523438 L 24.957031 36.695312 L 23.78125 37.871094 L 23.78125 46.085938 L 40.21875 46.085938 L 40.21875 37.871094 L 39.042969 36.695312 L 39.875 35.523438 C 38.867188 32.121094 35.734375 29.652344 32 29.652344 Z M 32 29.652344 "/>
<path fill-rule="nonzero" fill="rgb(96.862745%, 49.019608%, 34.509804%)" fill-opacity="1" d="M 24.128906 35.523438 C 23.90625 36.265625 23.78125 37.050781 23.78125 37.871094 L 40.21875 37.871094 C 40.21875 37.050781 40.09375 36.265625 39.875 35.523438 Z M 24.128906 35.523438 "/>
<path fill-rule="nonzero" fill="rgb(97.647059%, 97.647059%, 97.647059%)" fill-opacity="1" d="M 20.847656 19.675781 C 20.847656 21.617188 19.269531 23.195312 17.328125 23.195312 C 19.269531 23.195312 20.847656 24.773438 20.847656 26.71875 C 20.847656 24.773438 22.425781 23.195312 24.371094 23.195312 C 22.425781 23.195312 20.847656 21.617188 20.847656 19.675781 Z M 44.324219 25.542969 C 44.324219 27.488281 42.75 29.066406 40.804688 29.066406 C 42.75 29.066406 44.324219 30.640625 44.324219 32.585938 C 44.324219 30.640625 45.902344 29.066406 47.847656 29.066406 C 45.902344 29.066406 44.324219 27.488281 44.324219 25.542969 Z M 44.324219 25.542969 "/>
</svg>

<svg width="64" height="64" version="1.1" viewBox="0 0 64 64" xmlns="http://www.w3.org/2000/svg">
 <circle cx="32" cy="32" r="27" fill="#711246" stroke-width="1.1739"/>
 <rect x="30.826" y="15.565" width="2.3478" height="27" ry="1.1739" fill="#f9f9f9" stroke-width="1.1739" style="paint-order:normal"/>
 <path d="m32 29.652c-3.7352 0-6.8673 2.4692-7.8734 5.8696l0.82999 1.1739-1.1739 1.1739v8.2174h16.435v-8.2174l-1.1739-1.1739 0.82999-1.1739c-1.0062-3.4004-4.1383-5.8696-7.8734-5.8696z" fill="#f0d069" stroke-width="1.1739" style="paint-order:normal"/>
 <path d="m24.127 35.522c-0.22014 0.74403-0.34392 1.5305-0.34392 2.3478h16.435c0-0.81728-0.12378-1.6038-0.34392-2.3478z" fill="#f77d58" stroke-width="1.1739" style="paint-order:normal"/>
 <path d="m20.848 19.674c0 1.9451-1.5767 3.5217-3.5217 3.5217 1.9451 0 3.5217 1.5767 3.5217 3.5217 0-1.9451 1.5767-3.5217 3.5217-3.5217-1.9451 0-3.5217-1.5767-3.5217-3.5217zm23.478 5.8696c0 1.9451-1.5767 3.5217-3.5217 3.5217 1.9451 0 3.5217 1.5768 3.5217 3.5217-3.2e-5 -1.9451 1.5767-3.5217 3.5217-3.5217-1.9451 0-3.5217-1.5767-3.5217-3.5217z" fill="#f9f9f9" stroke-width="1.1739" style="paint-order:normal"/>
</svg>
